X:1
T:Silver Spear
L:1/8
M:C|
I:linebreak $
K:D
V:1 treble
V:1
 "D"F2 A2 BAFA | dfed Bd d2 | FAAA BAFA | dfed "A"B2 A2 |$
 "D"FAAA BAFA | dfed Bdef | "G"g2 ge "D"f2 fe |  dfed "A"B2 A2 :|$
|:"D"faaa baaf | gfed Bd d2 | faaa baaf | "A"gfed B2 A2 |$
 "D"faaa baaf |  gfed B2(3def | "G"g2 ge "D"f2 fe | "G"dfed "A"B2 A2 :|
